X: 37522
T: Slippery Slip, The
R: slip jig
M: 9/8
K: Dmajor
F2AA2AA2F|G2F E2F G2E|F2AA2AA2B|d2e d2B A2G|
F2AA2AA2F|G2F E2F G2A|B2c d2e e2d|1 f2e d2B A2G:|2 f2e d2c B2A||
|:d2ff2a a2f|g3g2b a2g|f2e d2f e2d|c2B A2B c2A|
d2ff2a a2f|g3g2b a2g|f2e d2c B2A|1 F2G G2A B2c:|2 F2G G2A BG||

